X: 12
T:Such A Wife As Willie Had. HA.013
M:C
L:1/4
Q:150
S:Henry Atkinson's original MS,Hartburn,N'umberland,1694.
O:England
A:Hartburn,Northumberland
H:1/4
Z:vmp.Chris Partington.Jan.2004
K:F
"No Key Sig in MS"Adde|f2ed|f2ed|e2c2|!
Adde|f2ed|e(f/g/) (a/g/)(f/e/)|"cr"d2A2||!
aa(b/a/)(g/f/)|gg(a/g/)(f/e/)|ff(g/f/)(e/d/)|e2c2|!
aa(b/a/)(g/f/)|gg(a/g/)(f/e/)|e(f/g/) (a/g/)(f/e/)|d2A2|]
